packages/crayons-icon/icons/vertical-align-bottom.svg

<?xml version="1.0" encoding="UTF-8"?>
<svg width="16px" height="16px" viewBox="0 0 16 16" version="1.1" xmlns="http://www.w3.org/2000/svg" xmlns:xlink="http://www.w3.org/1999/xlink">
    <!-- Generator: Sketch 52.6 (67491) - http://www.bohemiancoding.com/sketch -->
    <title>icon/vertical-align-bottom</title>
    <desc>Created with Sketch.</desc>
    <g id="Icons-✅" stroke="none" stroke-width="1" fill="none" fill-rule="evenodd">
        <g id="Icons" transform="translate(-654.000000, -804.000000)" fill="currentColor">
            <g id="icon/vertical-align-bottom" transform="translate(654.000000, 804.000000)">
                <g id="vertical-align-bottom">
                    <path d="M15.3,14.5 L14,14.5 L14,8.8 C14,8.41340068 13.6865993,8.1 13.3,8.1 L9.7,8.1 C9.31340068,8.1 9,8.41340068 9,8.8 L9,14.5 L7,14.5 L7,0.8 C7,0.614348457 6.92625021,0.436300718 6.79497475,0.305025253 C6.66369928,0.173749788 6.48565154,0.1 6.3,0.1 L2.7,0.1 C2.31340068,0.1 2,0.413400675 2,0.8 L2,14.5 L0.7,14.5 C0.313400675,14.5 4.73447626e-17,14.8134007 0,15.2 C-4.73447626e-17,15.5865993 0.313400675,15.9 0.7,15.9 L15.3,15.9 C15.6865993,15.9 16,15.5865993 16,15.2 C16,14.8134007 15.6865993,14.5 15.3,14.5 Z M3.4,14.5 L3.4,1.5 L5.6,1.5 L5.6,14.5 L3.4,14.5 Z M10.4,14.5 L10.4,9.5 L12.6,9.5 L12.6,14.5 L10.4,14.5 Z" id="Shape"></path>
                </g>
            </g>
        </g>
    </g>
</svg>

<svg viewBox="0 0 16 16"><path d="M15.3 14.5H14V8.8a.7.7 0 0 0-.7-.7H9.7a.7.7 0 0 0-.7.7v5.7H7V.8a.7.7 0 0 0-.7-.7H2.7a.7.7 0 0 0-.7.7v13.7H.7a.7.7 0 0 0 0 1.4h14.6a.7.7 0 0 0 0-1.4zm-11.9 0v-13h2.2v13H3.4zm7 0v-5h2.2v5h-2.2z" fill="currentColor" fill-rule="evenodd"/></svg>
